X:1
T:Title
%%score { ( 1 4 ) | ( 2 3 ) }
L:1/8
M:2/4
K:Bb
V:1 bass nm="Grand Piano"
V:4 bass 
V:2 bass 
V:3 bass 
V:1
 z2 z z/[Q:1/4=92] D/ | [^F,D]2[K:treble] E>E | ^F2 G>G | A2 ^F>A | G3- G/A/ | B2 A>G | ^F2 E>F | %7
 G2 ^F>E | D3- D/D/ | D2 E>E | ^F2 G>G | A2 ^F>A | G3- G/A/ | B2 A>G | ^F2 E>F | G2 ^F>E | %16
 D3- D/D/ | d2 z2 | d2 z2 | z2 B2 | [^Fd]3- [Fd]/D/ | d2 z2 | d2 z2 | [^FA]2 [_DGc]2 | [DA]4 | %25
 [EB]2 A>G | G2 ^F>F | A2 G>^F | ^F3- F/D/ | G2 ^F>E | E2 D>_D | E2 D>_D | D4 |] %33
V:2
 z2 z z/ D,/ | z2 G,2 | A,2 B,2 | C2 A,>[K:treble]C | [G,B,]4 | [CE]3- [CE]/[B,D]/ | %6
 [A,C]2 [G,B,]>[A,C] | B,4 | [D,^F,A,]4 | D,2- [D,-G,]2 | [D,-A,]2 [D,B,]2 | C2 A,>[K:treble]C | %12
 [G,B,]4 | [CE]3- [CE]/[B,D]/ | [A,C]2 [G,B,]>[A,C] | B,4 | [D,^F,A,]4 | F,2 z2 | %18
 [E,G,]2 B,>[K:treble]_D | [D^F]2[K:bass] [E,G,]2 | [D,A,]4 | F,2 z2 | [E,G,]2 B,>_D | %23
 D2 z z/[K:treble] B/ | z2 F>G | z2 E>[K:bass][B,D] | [B,D]2 C2- | [^F,C]2 [E,_D]2 | [D,A,D]4 | %29
 [B,D]2 [A,C]2 | [G,B,]2 [^F,A,]2 | [G,B,]2 [^F,A,]2 | [D,^F,A,]4 |] %33
V:3
 x4 | D,4- | D,4 | D,4[K:treble] | x4 | x4 | x4 | D2 _D,2 | x4 | ^F,2 z2 | x4 | D,4[K:treble] | %12
 x4 | x4 | x4 | D2 _D,2 | x4 | B,,2- [B,,^F,]2 | x7/2[K:treble] x/ | x2[K:bass] x2 | x4 | %21
 B,,2- [B,,^F,]2 | x4 | z2 E,2[K:treble] | D,4 | C4[K:bass] | z2 A,2 | x4 | x4 | x4 | x4 | x4 | %32
 x4 |] %33
V:4
 x4 | x2[K:treble] x2 | x4 | x4 | x4 | x4 | x4 | x4 | x4 | x4 | x4 | x4 | x4 | x4 | x4 | x4 | x4 | %17
 D2- [D-d]>[Dd] | G2- [G-_d]>[GB] | A2 G->[Gc] | x4 | D2- [D-d]>[Dd] | G2- [G-_d]>[GB] | x4 | %24
 F2 z2 | x4 | x4 | x4 | x4 | x4 | x4 | x4 | x4 |] %33

